img/header/logo.svg

<svg width="161" height="30" viewBox="0 0 161 30" fill="none" xmlns="http://www.w3.org/2000/svg">
<path d="M42.7023 22.959C42.9098 22.959 43.0948 22.9646 43.2517 22.9814C43.4087 22.9982 43.5433 23.015 43.661 23.0319C43.7787 23.0487 43.8796 23.0711 43.9637 23.0991C44.0478 23.1272 44.1263 23.1496 44.1936 23.172L44.2048 24.282H44.0702C44.0702 23.9737 43.9637 23.7326 43.7563 23.5588C43.5489 23.3851 43.2237 23.2954 42.7808 23.2954C42.4052 23.2954 42.0856 23.3963 41.8222 23.6037C41.5587 23.8111 41.4297 24.0634 41.4353 24.3605C41.4353 24.4558 41.4465 24.5567 41.4746 24.6577C41.5026 24.7586 41.5475 24.8595 41.6091 24.9548C41.6708 25.0501 41.7605 25.151 41.8726 25.2463L44.1375 26.9954C44.3113 27.1356 44.4346 27.3206 44.5187 27.5392C44.6028 27.7579 44.6477 27.9765 44.6533 28.1952C44.6589 28.5259 44.5748 28.8287 44.3954 29.1034C44.216 29.3781 43.9749 29.5967 43.6722 29.7593C43.3695 29.9219 43.0331 30.0004 42.6687 30.0004C42.4501 30.0004 42.2202 29.9835 41.9679 29.9443C41.7156 29.9051 41.4858 29.849 41.2671 29.7705C41.0485 29.692 40.8691 29.5911 40.7289 29.4734C40.7065 29.3669 40.6953 29.2379 40.6953 29.0753C40.6953 28.9128 40.7065 28.7446 40.7346 28.5652C40.7626 28.3858 40.7962 28.2232 40.8411 28.083H40.9756C40.9476 28.4194 40.9924 28.7053 41.1214 28.9464C41.2503 29.1875 41.4353 29.3669 41.682 29.4902C41.9287 29.6135 42.2146 29.6696 42.5454 29.664C43.0107 29.6472 43.3751 29.5294 43.6386 29.3108C43.9021 29.0922 44.0366 28.795 44.0366 28.4306C44.0366 28.2512 44.003 28.0887 43.9413 27.9429C43.8796 27.7971 43.7731 27.6626 43.633 27.5336L41.3905 25.8069C41.1831 25.6275 41.0373 25.4313 40.9644 25.2127C40.8915 24.994 40.8523 24.7922 40.8523 24.596C40.8523 24.2877 40.9364 24.0129 41.099 23.7663C41.2615 23.5196 41.4858 23.3234 41.7661 23.1776C42.0464 23.0319 42.3604 22.959 42.7023 22.959ZM44.1824 23.0599L44.1936 23.2617H43.3975V23.0599H44.1824Z" fill="#313131"/>
<path d="M64.1525 23.8323H64.1189C64.1132 23.6585 64.046 23.5184 63.9226 23.4007C63.7993 23.2829 63.6479 23.2269 63.4685 23.2269H63.334V23.1147H64.1525V23.8323ZM64.1525 29.1246V29.8422H63.334V29.7301H63.4685C63.6479 29.7301 63.7993 29.6684 63.9226 29.5507C64.046 29.4329 64.1132 29.2872 64.1189 29.1246H64.1525ZM64.8364 23.1147V29.8422H64.1189V23.1147H64.8364ZM69.0859 26.3551V26.6915H64.7131V26.3551H69.0859ZM64.8028 23.8323V23.1147H65.6213V23.2269H65.4868C65.3074 23.2269 65.156 23.2829 65.0271 23.4007C64.8981 23.5184 64.8364 23.6585 64.8364 23.8323H64.8028ZM64.8028 29.1246H64.8364C64.8364 29.2872 64.8981 29.4329 65.0271 29.5507C65.156 29.6684 65.3074 29.7301 65.4868 29.7301H65.6213V29.8422H64.8028V29.1246ZM69.0075 23.8323H68.9738C68.9682 23.6585 68.9009 23.5184 68.7776 23.4007C68.6543 23.2829 68.5029 23.2269 68.3235 23.2269H68.189V23.1147H69.0075V23.8323ZM69.0075 29.1246V29.8422H68.189V29.7301H68.3235C68.5029 29.7301 68.6543 29.6684 68.7776 29.5507C68.9009 29.4329 68.9682 29.2872 68.9738 29.1246H69.0075ZM69.6914 23.1147V29.8422H68.9738V23.1147H69.6914ZM69.6578 23.8323V23.1147H70.4763V23.2269H70.3417C70.1623 23.2269 70.011 23.2829 69.8876 23.4007C69.7643 23.5184 69.697 23.6585 69.6914 23.8323H69.6578ZM69.6578 29.1246H69.6914C69.697 29.2872 69.7643 29.4329 69.8876 29.5507C70.011 29.6684 70.1623 29.7301 70.3417 29.7301H70.4763V29.8422H69.6578V29.1246Z" fill="#313131"/>
<path d="M92.7102 22.9585C93.2316 22.9585 93.7249 23.0426 94.1846 23.2108C94.6443 23.379 95.048 23.62 95.3956 23.934C95.7432 24.2479 96.0123 24.6179 96.2085 25.0496C96.4047 25.4813 96.5 25.9578 96.5 26.4792C96.5 27.0006 96.4047 27.4771 96.2085 27.9088C96.0123 28.3404 95.7432 28.7105 95.3956 29.0244C95.048 29.3383 94.6443 29.5794 94.1846 29.7476C93.7249 29.9158 93.2316 29.9999 92.7102 29.9999C92.1888 29.9999 91.6955 29.9158 91.2414 29.7476C90.7873 29.5794 90.3836 29.3383 90.0361 29.0244C89.6885 28.7105 89.4194 28.3404 89.2232 27.9088C89.0269 27.4771 88.9316 27.0006 88.9316 26.4792C88.9316 25.9578 89.0269 25.4813 89.2232 25.0496C89.4194 24.6179 89.6885 24.2479 90.0361 23.934C90.3836 23.62 90.7873 23.379 91.2414 23.2108C91.6955 23.0426 92.1888 22.9585 92.7102 22.9585ZM92.7102 29.6635C93.2652 29.6635 93.7642 29.529 94.2127 29.2599C94.6612 28.9908 95.0144 28.6151 95.2779 28.1386C95.5413 27.6621 95.6703 27.1071 95.6703 26.4792C95.6703 25.8457 95.5413 25.2907 95.2779 24.8141C95.0144 24.3376 94.6612 23.9676 94.2127 23.6985C93.7642 23.4294 93.2652 23.2949 92.7102 23.2949C92.1664 23.2949 91.6675 23.4294 91.219 23.6985C90.7705 23.9676 90.4173 24.3376 90.1538 24.8141C89.8903 25.2907 89.7614 25.8457 89.7614 26.4792C89.7614 27.1071 89.8903 27.6621 90.1538 28.1386C90.4173 28.6151 90.7705 28.9908 91.219 29.2599C91.6675 29.529 92.1664 29.6635 92.7102 29.6635Z" fill="#313131"/>
<path d="M115.785 23.8211H115.762C115.757 23.6473 115.689 23.5072 115.566 23.3951C115.443 23.2829 115.291 23.2269 115.112 23.2269H114.955V23.1147H115.931L115.785 23.8211ZM115.785 29.1246L115.931 29.8422H114.955V29.7301H115.112C115.291 29.7301 115.443 29.6684 115.566 29.5507C115.689 29.4329 115.757 29.2872 115.762 29.1246H115.785ZM116.48 23.1147V29.8422H115.762V23.1147H116.48ZM116.446 29.1246H116.469C116.474 29.2872 116.542 29.4329 116.665 29.5507C116.788 29.6684 116.94 29.7301 117.119 29.7301C117.125 29.7301 117.181 29.7301 117.276 29.7301V29.8422H116.301L116.446 29.1246ZM117.579 23.1147C118.1 23.1147 118.554 23.1932 118.935 23.3446C119.317 23.496 119.614 23.7202 119.821 24.0061C120.029 24.292 120.135 24.634 120.135 25.0321C120.135 25.4581 120.04 25.8225 119.849 26.1253C119.659 26.428 119.406 26.6579 119.092 26.8204C118.779 26.983 118.431 27.0615 118.05 27.0559C117.668 27.0503 117.287 26.955 116.906 26.77V26.6579C117.153 26.7027 117.371 26.7251 117.568 26.7195C117.764 26.7139 117.966 26.6803 118.184 26.6186C118.403 26.5569 118.605 26.4392 118.795 26.2654C118.986 26.0916 119.137 25.845 119.249 25.5254C119.277 25.4413 119.3 25.346 119.311 25.2339C119.322 25.1218 119.328 25.0152 119.328 24.9199C119.328 24.4658 119.171 24.107 118.857 23.8436C118.543 23.5801 118.111 23.4511 117.556 23.4511H116.458C116.418 23.339 116.379 23.2269 116.334 23.1147H117.579Z" fill="#313131"/>
<path d="M0.448496 12.7821H0V7.55715H0.448496C0.448496 8.9643 0.953053 10.1584 1.96217 11.1451C2.97128 12.1318 4.19904 12.6251 5.65104 12.6251C6.25091 12.6251 6.73304 12.4514 7.09744 12.0982C7.46184 11.745 7.64685 11.2797 7.64685 10.6966C7.64685 10.0407 7.22078 9.48007 6.36864 9.01476C5.90332 8.77369 5.10724 8.39808 3.96919 7.88231C2.83113 7.36654 2.03505 6.92926 1.56973 6.57046C0.644712 5.85287 0.23546 4.90542 0.347584 3.72251C0.459708 2.53961 0.902597 1.6258 1.68186 0.975478C2.46112 0.325159 3.33569 0 4.31677 0C5.29785 0 6.17803 0.128942 6.96289 0.392433C7.74776 0.655925 8.19065 0.784867 8.29717 0.784867C8.59429 0.784867 8.74566 0.521376 8.74566 0H9.19416V4.10373H8.74566C8.74566 3.02734 8.34762 2.14717 7.55715 1.46882C6.76668 0.790473 5.74635 0.448496 4.50738 0.448496C3.95237 0.448496 3.52069 0.611075 3.20674 0.930628C2.8928 1.25579 2.73582 1.60898 2.73582 1.9958C2.73582 2.38263 2.78628 2.68537 2.8928 2.8928C2.99931 3.10022 3.17871 3.29084 3.4422 3.46463C3.70569 3.63842 3.92994 3.77297 4.12616 3.87949C4.32237 3.986 4.63072 4.12616 5.05679 4.30556C5.48286 4.48495 5.77999 4.6139 5.94256 4.68678C6.76668 5.06239 7.24881 5.28103 7.40018 5.34831C7.55154 5.41558 7.76458 5.5221 8.05049 5.67347C8.33641 5.82483 8.54945 5.95938 8.6896 6.07711C8.82976 6.19484 9.01476 6.34621 9.23901 6.52561C9.46325 6.70501 9.62583 6.89001 9.73235 7.07502C9.83887 7.26002 9.93978 7.47306 10.0463 7.71412C10.2537 8.19065 10.3322 8.75127 10.2705 9.39598C10.1528 10.6069 9.69872 11.5319 8.91385 12.1654C8.12898 12.7989 7.06941 13.1185 5.74074 13.1185C4.54662 13.1185 3.35811 12.8102 2.1752 12.1991C1.77156 11.9916 1.47443 11.8851 1.27821 11.8851C0.723199 11.8851 0.448496 12.1879 0.448496 12.7821Z" fill="#313131"/>
<path d="M32.9416 4.03682C32.9416 2.70815 32.7229 1.81116 32.28 1.35706C31.8371 0.902959 31.013 0.673105 29.8021 0.673105H29.1293V12.334H30.6991V12.7825H24.1959V12.334H25.7656V0.673105H25.0929C23.8988 0.673105 23.0803 0.902959 22.6374 1.35706C22.1945 1.81116 21.9758 2.70815 21.9758 4.03682H21.5273V0.224609H33.3901V4.03682H32.9416Z" fill="#313131"/>
<path d="M57.9452 12.3336V12.7821H52.0475V12.3336H53.3706L51.8681 9.21658H47.3383L46.0377 12.3336H47.8092V12.7821H43.9746V12.3336H45.4771L50.6123 0H51.173L56.8689 12.3336H57.9452ZM47.5401 8.74566H51.6439L49.4463 4.17101L47.5401 8.74566Z" fill="#313131"/>
<path d="M82.0518 13.0067H81.0651C79.1982 13.0067 77.8976 12.6031 77.1632 11.7958C76.5802 11.1679 76.1821 10.3382 75.9747 9.30664C75.885 8.87497 75.7897 8.47693 75.6832 8.11813C75.4421 7.31084 74.96 6.90719 74.2256 6.90719H73.2389V12.334H74.3601V12.7825H68.7539V12.334H69.8751V0.673105H68.7539V0.224609H74.6516C78.4638 0.224609 80.3699 1.34024 80.3699 3.5659C80.3699 4.44607 80.0504 5.16367 79.4057 5.71868C78.761 6.27369 77.9425 6.54839 76.939 6.54839V6.70537C78.4358 6.70537 79.4729 7.69206 80.056 9.66544C80.3531 10.7138 80.6559 11.4538 80.9642 11.8967C81.2725 12.3396 81.6313 12.5582 82.0518 12.5582V13.0067ZM73.2389 0.673105V6.4587C74.7357 6.4587 75.7336 6.24005 76.2438 5.80838C76.7539 5.3767 77.0062 4.6479 77.0062 3.63317C77.0062 2.61845 76.7427 1.86722 76.2214 1.3907C75.7 0.914171 74.7021 0.673105 73.2389 0.673105Z" fill="#313131"/>
<path d="M92.4121 0.673105V0.224609H98.9826V0.673105H97.8838L100.956 7.60236L102.391 4.03682L100.889 0.673105H100.037V0.224609H106.181V0.673105H105.127L108.132 7.51266L110.509 0.673105H108.715V0.224609H112.572V0.673105H111.047L106.854 12.7825H106.315L106.405 12.5358L106.293 12.7825L102.683 4.66471L99.4311 12.7825H98.8929L93.4885 0.673105H92.4121Z" fill="#313131"/>
<path d="M136.902 12.3336V12.7821H131.005V12.3336H132.328L130.825 9.21658H126.295L124.995 12.3336H126.766V12.7821H122.932V12.3336H124.434L129.569 0H130.13L135.826 12.3336H136.902ZM126.497 8.74566H130.601L128.403 4.17101L126.497 8.74566Z" fill="#313131"/>
<path d="M156.705 12.7825H151.547V12.334H152.444V7.60236L148.43 0.673105H147.264V0.224609H153.543V0.673105H152.444L155.583 6.32415L158.498 0.673105H156.705V0.224609H160.629V0.673105H159.059L155.808 6.99689V12.334H156.705V12.7825Z" fill="#313131"/>
</svg>

<svg width="161" height="30" fill="none" xmlns="http://www.w3.org/2000/svg"><path d="M42.702 22.959c.208 0 .393.006.55.022.157.017.291.034.409.05.118.018.219.04.303.068.084.028.162.05.23.073l.01 1.11h-.134c0-.308-.106-.55-.314-.723-.207-.174-.532-.264-.975-.264-.376 0-.695.101-.959.309-.263.207-.392.46-.387.756a1.083 1.083 0 00.174.594c.062.096.151.197.264.292l2.265 1.75c.173.14.297.325.38.543.085.219.13.438.135.656.006.33-.078.634-.258.908-.179.275-.42.494-.723.656A2.09 2.09 0 0142.67 30c-.219 0-.449-.017-.701-.056a3.765 3.765 0 01-.7-.174 1.752 1.752 0 01-.54-.297 1.953 1.953 0 01-.033-.398c0-.162.011-.33.04-.51.028-.18.061-.342.106-.482h.135c-.028.336.016.622.145.863.13.241.314.42.561.544.247.123.533.18.863.174.466-.017.83-.135 1.094-.353.263-.219.398-.516.398-.88 0-.18-.034-.342-.096-.488a1.214 1.214 0 00-.308-.41l-2.242-1.726c-.208-.18-.354-.376-.427-.594a1.944 1.944 0 01-.112-.617c0-.308.084-.583.247-.83.163-.246.387-.443.667-.588.28-.146.594-.219.936-.219zm1.48.1l.012.203h-.797v-.202h.785zM64.153 23.832h-.034a.6.6 0 00-.196-.431.63.63 0 00-.455-.174h-.134v-.112h.819v.717zm0 5.293v.717h-.819v-.112h.134c.18 0 .331-.062.455-.18a.607.607 0 00.196-.425h.034zm.683-6.01v6.727h-.717v-6.727h.717zm4.25 3.24v.337h-4.373v-.337h4.373zm-4.283-2.523v-.717h.818v.112h-.134c-.18 0-.331.056-.46.174a.554.554 0 00-.19.431h-.034zm0 5.293h.033a.56.56 0 00.191.426c.129.117.28.18.46.18h.134v.111h-.818v-.717zm4.204-5.293h-.033a.6.6 0 00-.196-.431.63.63 0 00-.455-.174h-.134v-.112h.819v.717zm0 5.293v.717h-.818v-.112h.135c.179 0 .33-.062.454-.18a.607.607 0 00.196-.425h.033zm.684-6.01v6.727h-.717v-6.727h.717zm-.033.717v-.717h.818v.112h-.134a.63.63 0 00-.454.174.6.6 0 00-.197.431h-.033zm0 5.293h.033a.607.607 0 00.197.426c.123.117.274.18.454.18h.134v.111h-.818v-.717zM92.71 22.959c.522 0 1.015.084 1.475.252.46.168.863.409 1.21.723.348.314.617.684.814 1.116.196.431.291.908.291 1.43 0 .52-.095.997-.291 1.429a3.35 3.35 0 01-.813 1.115 3.666 3.666 0 01-1.211.724c-.46.168-.953.252-1.475.252a4.21 4.21 0 01-1.469-.252 3.697 3.697 0 01-1.205-.724 3.35 3.35 0 01-.813-1.115 3.412 3.412 0 01-.291-1.43c0-.521.095-.998.291-1.43.196-.431.466-.801.813-1.115a3.695 3.695 0 011.205-.723 4.21 4.21 0 011.47-.252zm0 6.704a2.86 2.86 0 001.503-.403 2.93 2.93 0 001.065-1.121c.263-.477.392-1.032.392-1.66 0-.633-.129-1.188-.392-1.665a2.914 2.914 0 00-1.065-1.116 2.86 2.86 0 00-1.503-.403c-.544 0-1.042.134-1.491.403-.448.27-.802.64-1.065 1.116-.264.477-.393 1.032-.393 1.665 0 .628.13 1.183.393 1.66a2.93 2.93 0 001.065 1.12c.449.27.947.404 1.491.404zM115.785 23.821h-.023a.576.576 0 00-.196-.426.65.65 0 00-.454-.168h-.157v-.112h.976l-.146.706zm0 5.304l.146.717h-.976v-.112h.157a.635.635 0 00.454-.18.606.606 0 00.196-.425h.023zm.695-6.01v6.727h-.718v-6.727h.718zm-.034 6.01h.023a.606.606 0 00.196.426c.123.117.275.18.454.18h.157v.111h-.975l.145-.717zm1.133-6.01c.521 0 .975.078 1.356.23.382.151.679.375.886.661.208.286.314.628.314 1.026 0 .426-.095.79-.286 1.093-.19.303-.443.533-.757.695a2.157 2.157 0 01-1.042.236 2.69 2.69 0 01-1.144-.286v-.112c.247.045.465.067.662.061.196-.005.398-.039.616-.1.219-.062.421-.18.611-.354.191-.173.342-.42.454-.74.028-.084.051-.179.062-.291.011-.112.017-.219.017-.314 0-.454-.157-.813-.471-1.076-.314-.264-.746-.393-1.301-.393h-1.098c-.04-.112-.079-.224-.124-.336h1.245zM.448 12.782H0V7.557h.448c0 1.407.505 2.601 1.514 3.588 1.01.987 2.237 1.48 3.689 1.48.6 0 1.082-.174 1.446-.527.365-.353.55-.818.55-1.401 0-.656-.426-1.217-1.278-1.682a58.08 58.08 0 00-2.4-1.133c-1.138-.515-1.934-.953-2.4-1.312C.646 5.853.236 4.905.349 3.723.46 2.54.903 1.626 1.682.975 2.462.325 3.336 0 4.317 0c.98 0 1.861.129 2.646.392.785.264 1.228.393 1.334.393.297 0 .449-.264.449-.785h.448v4.104h-.448c0-1.077-.398-1.957-1.189-2.635-.79-.679-1.81-1.02-3.05-1.02-.555 0-.986.162-1.3.482-.314.325-.471.678-.471 1.065 0 .387.05.69.157.897.106.207.286.398.55.572.263.173.487.308.683.414.196.107.505.247.93.427.427.179.724.308.887.38.824.376 1.306.595 1.457.662.152.068.365.174.65.325.286.152.5.286.64.404.14.118.325.27.549.449.224.179.387.364.493.549.107.185.208.398.314.64.208.476.286 1.036.225 1.681-.118 1.21-.572 2.136-1.357 2.77-.785.633-1.845.952-3.173.952-1.194 0-2.383-.308-3.566-.919-.403-.207-.7-.314-.897-.314-.555 0-.83.303-.83.897zM32.942 4.037c0-1.329-.22-2.226-.662-2.68-.443-.454-1.267-.684-2.478-.684h-.673v11.661h1.57v.449h-6.503v-.449h1.57V.674h-.673c-1.194 0-2.013.229-2.456.683-.442.454-.661 1.351-.661 2.68h-.449V.225H33.39v3.812h-.448zM57.945 12.334v.448h-5.898v-.448h1.324l-1.503-3.117h-4.53l-1.3 3.117h1.771v.448h-3.834v-.448h1.502L50.612 0h.561l5.696 12.334h1.076zM47.54 8.746h4.104L49.446 4.17 47.54 8.746zM82.052 13.007h-.987c-1.867 0-3.167-.404-3.902-1.211-.583-.628-.98-1.458-1.188-2.49-.09-.431-.185-.83-.292-1.188-.24-.807-.723-1.21-1.457-1.21h-.987v5.426h1.121v.449h-5.606v-.449h1.121V.674h-1.121v-.45h5.898c3.812 0 5.718 1.116 5.718 3.342 0 .88-.32 1.598-.964 2.153-.645.555-1.464.83-2.467.83v.156c1.497 0 2.534.987 3.117 2.96.297 1.049.6 1.789.908 2.232.308.443.667.661 1.088.661v.449zM73.239.673V6.46c1.497 0 2.495-.219 3.005-.65.51-.432.762-1.161.762-2.176 0-1.015-.263-1.766-.785-2.242C75.7.914 74.702.673 73.24.673zM92.412.673V.225h6.57v.448h-1.098l3.072 6.93 1.435-3.566-1.502-3.364h-.852V.225h6.144v.448h-1.054l3.005 6.84 2.377-6.84h-1.794V.225h3.857v.448h-1.525l-4.193 12.11h-.539l.09-.247-.112.247-3.61-8.118-3.252 8.117h-.538L93.489.674h-1.077zM136.902 12.334v.448h-5.897v-.448h1.323l-1.503-3.117h-4.53l-1.3 3.117h1.771v.448h-3.834v-.448h1.502L129.569 0h.561l5.696 12.334h1.076zm-10.405-3.588h4.104l-2.198-4.575-1.906 4.575zM156.705 12.783h-5.158v-.449h.897V7.602L148.43.673h-1.166V.225h6.279v.448h-1.099l3.139 5.651 2.915-5.65h-1.793v-.45h3.924v.45h-1.57l-3.251 6.323v5.337h.897v.449z" fill="#313131"/></svg>
